X:145
T: Sanwu jiaojiao ritou an
N: C0243
O: China, Hainan, Wenchang
S: II, 386]
N: ]
R: Shange, Muniu ge. Kongsu rikou qinlue]
M: 2/4
L: 1/16
K: Bb
c8 | c2b2g2f2 | g2b2c4- | c4d2b2 | c8
g2b2c2e2 | b2g2f4 | g2b2c4- | c8
d2fdc2c2 | b2cdc4
g2b2c2e2 | b2g2f4
e2f2c2e2 | gfe2f4 | c2e2f4- | f8
f2d2f2df | cdb2c4
g2b2c2dd | b2g2f4 | c2b2c4- | c8

